ncols 20
nrows 20
xllcorner 77.1100
yllcorner 28.7050
cellsize 0.00025
NODATA_value -9999
214.25 214.36 214.47 214.54 214.59 214.60 214.57 214.50 214.41 214.30 214.18 214.07 213.99 213.92 213.90 213.91 213.97 214.05 214.15 214.27
214.24 214.36 214.46 214.54 214.58 214.59 214.56 214.50 214.40 214.29 214.18 214.07 213.98 213.92 213.89 213.91 213.96 214.04 214.14 214.26
214.22 214.33 214.44 214.51 214.56 214.57 214.54 214.47 214.38 214.27 214.15 214.04 213.95 213.89 213.87 213.88 213.93 214.02 214.12 214.24
214.18 214.30 214.40 214.48 214.52 214.53 214.50 214.44 214.34 214.23 214.12 214.01 213.92 213.86 213.83 213.85 213.90 213.98 214.09 214.20
214.14 214.25 214.35 214.43 214.48 214.48 214.45 214.39 214.30 214.18 214.07 213.96 213.87 213.81 213.79 213.80 213.85 213.93 214.04 214.15
214.08 214.19 214.30 214.37 214.42 214.43 214.40 214.33 214.24 214.13 214.01 213.90 213.81 213.75 213.73 213.74 213.79 213.88 213.98 214.10
214.02 214.13 214.23 214.31 214.36 214.37 214.34 214.27 214.18 214.07 213.95 213.84 213.75 213.69 213.67 213.68 213.73 213.82 213.92 214.04
213.96 214.07 214.17 214.25 214.30 214.30 214.27 214.21 214.12 214.00 213.89 213.78 213.69 213.63 213.61 213.62 213.67 213.75 213.86 213.97
213.90 214.01 214.11 214.19 214.24 214.24 214.21 214.15 214.06 213.95 213.83 213.72 213.63 213.57 213.55 213.56 213.61 213.69 213.80 213.91
213.84 213.96 214.06 214.14 214.18 214.19 214.16 214.10 214.00 213.89 213.78 213.67 213.58 213.52 213.49 213.51 213.56 213.64 213.75 213.86
213.80 213.91 214.02 214.09 214.14 214.15 214.12 214.05 213.96 213.85 213.73 213.62 213.53 213.47 213.45 213.46 213.52 213.60 213.70 213.82
213.77 213.88 213.99 214.06 214.11 214.12 214.09 214.02 213.93 213.82 213.70 213.59 213.50 213.44 213.42 213.43 213.48 213.57 213.67 213.79
213.75 213.87 213.97 214.05 214.09 214.10 214.07 214.01 213.91 213.80 213.69 213.58 213.49 213.43 213.40 213.42 213.47 213.55 213.65 213.77
213.75 213.87 213.97 214.05 214.09 214.10 214.07 214.00 213.91 213.80 213.68 213.58 213.49 213.43 213.40 213.42 213.47 213.55 213.65 213.77
213.77 213.88 213.98 214.06 214.11 214.11 214.08 214.02 213.93 213.82 213.70 213.59 213.50 213.44 213.42 213.43 213.48 213.56 213.67 213.78
213.79 213.91 214.01 214.09 214.14 214.14 214.11 214.05 213.95 213.84 213.73 213.62 213.53 213.47 213.45 213.46 213.51 213.59 213.70 213.81
213.84 213.95 214.05 214.13 214.18 214.18 214.15 214.09 214.00 213.89 213.77 213.66 213.57 213.51 213.49 213.50 213.55 213.63 213.74 213.85
213.89 214.00 214.10 214.18 214.23 214.24 214.21 214.14 214.05 213.94 213.82 213.71 213.62 213.56 213.54 213.55 213.60 213.69 213.79 213.91
213.95 214.06 214.16 214.24 214.29 214.30 214.27 214.20 214.11 214.00 213.88 213.77 213.68 213.62 213.60 213.61 213.66 213.74 213.85 213.96
214.01 214.12 214.23 214.30 214.35 214.36 214.33 214.26 214.17 214.06 213.94 213.83 213.74 213.68 213.66 213.67 213.72 213.81 213.91 214.03
